X: 2070
T: Savila se bela loza
O: Srbija
Z: John Chambers <jc@eddie.mit.edu> http://eddie.mit.edu/~jc/music/
M: 2/4
L: 1/16
P: C
K: C
|: "C"[ge][ge][af][bg] "F"[c'a][c'a][bg][af] \
| "C"[af][ge][g2e]- [ge][c'a][bg][af] \
| "(G)"[af][ge][g2e] [ge][af][af][ge] \
| "G"[ge][fd][f2d]- [fd][ge][ge][fd] \
| "C"[e2c]"G"[d2B] "C"[c4G] :|
|: "C"[ge][ec]"G"[fd][dB] "C"[cG][ec][e2c] \
| "G"[fd][dB]"D"[ec][cA] "G"[BG][dB]"(3times)"[d2B] :|
P: G
K: G
|: "G"[dB][dB][ec][fd] "C"[ge][ge][fd][ec] \
| "G"[ec][dB][d2B]- [dB][ge][fd][ec] \
| "(D)"[ec][dB][d2B] [dB][ec][ec][dB] \
| "D"[dB][cA][c2A]- [cA][dB][dB][cA] \
| "G"[B2G]"D"[A2F] "G"[G4D] :|
|: "G"[dB][BG]"D"[cA][AF] "G"[GD][BG][B2G] \
| "D"[cA][AF]"A"[BG][GE] "D"[FD][AF]"(3times)"[A2F] :|
